X:1
T:Title
%%score 1 2
L:1/8
Q:1/4=90
M:4/4
K:D
V:1 treble nm="Strings 1, Treble"
V:2 bass nm="Strings 1, Bass"
V:1
 z4 z2 [A,D]2 | [DF]3 [DF] [DE]2 D2 | [DF]2 [FA]4 [GB]2 | [FA]3 [DF] [DF]2 [CE]2 | [A,D]6 [A,D]2 | %5
w: 1.~Our~|Fa ther~ hath~ so~|loved~ us,~ He~|gave~ His~ on ly~|Son~ To~|
 [DF]3 [DF] [DE]2 D2 | [DF]2 [FA]4 [GB]2 | [FA]3 [Ed] [Ec]2 [DB]2 | [CA]6 [DF]2 | %9
w: die~ for~ guilt y~|sin ners,~ To~|ran som~ eve ry|one;~ Such~|
 [EG]3 [EG] [DF]2 [CE]2 | [DF]2 [FA]4 [Ad]2 | [^Ge]3 [GB] [=Gc]2 [GA]2 | [Fd]6 [FA]2 | %13
w: love~ is~ more~ than~|hu man,~ Com|pas sion ate,~ di|vine;~ Be|
 [Fd]3 [Fd] [Fc]2 [FB]2 | [FA]2 [Fd]4 [GB]2 | [FA]3 [DF] [DF]2 [CE]2 | [A,D]6 [DF]2 | [CE]6 [EG]2 | %18
w: cause~ He~ died,~ I'm~|liv ing,~ And~|heav en's~ joy~ is~|mine.~ *||
 [DF]6 [FA]2 | [FB]2 [FA]2 [EG]2 [DF]2 | [CE]6 D2 | [DF]3 [DF] [FA]2 [Ad]2 | %22
w: ||||
 [Gd]3 [GB] [GB]2[Q:1/4=90] [GB]2[Q:1/4=12] | [FA]3 [DF] [DF]2 [CE]2 | [A,D]6 z2 |] %25
w: |||
V:2
 z4 z2 [D,F,]2 | [D,A,]3 [D,A,] [D,G,]2 [D,F,]2 | [D,A,]2 [D,D]4 [D,D]2 | %3
 [D,D]3 [D,A,] [A,,A,]2 [A,,G,]2 | [D,F,]6 [D,F,]2 | [D,A,]3 [D,A,] [D,G,]2 [D,F,]2 | %6
 [D,A,]2 [D,D]4 [D,D]2 | [D,D]3 [B,,^G,] [E,A,]2 [E,G,]2 | [A,,A,]6 [A,,A,]2 | %9
 [A,,A,]3 [A,,A,] [A,,A,]2 [A,,A,]2 | [D,A,]2 [D,D]4 [F,A,]2 | [E,B,]3 [E,E] [A,E]2 [A,C]2 | %12
 [D,D]6 [D,D]2 | [D,A,]3 [D,A,] [D,A,]2 [D,D]2 | [D,D]2 [D,A,]4 [D,D]2 | %15
 [D,D]3 [F,A,] A,2 [A,,G,]2 | [D,F,]6 z2 | z2 [A,,A,]2 [A,,A,]2 z2 | z2 [D,A,]2 [D,A,]2 [D,D]2 | %19
 [B,,D]2 [D,D]2 [C,A,]2 [D,A,]2 | [A,,A,]6 [D,F,]2 | [D,A,]3 [D,A,] [D,D]2 [F,D]2 | %22
 [G,B,]3 [G,D] [G,D]2 [G,D]2 | [A,D]3 A, [A,,A,]2 [A,,G,]2 | [D,F,]6 z2 |] %25

